images/like.svg

<svg width="22" height="19" fill="none" xmlns="http://www.w3.org/2000/svg"><path fill-rule="evenodd" clip-rule="evenodd" d="M19.175 2.79339c-1.6454-1.62692-4.3175-1.62865-5.9651-.00517l-2.2181 2.23801-2.24131-2.21612c-1.64992-1.64756-4.31738-1.63949-5.93677-.02227l-.00556.00556c-.79257.78367-1.21849 1.82289-1.21849 2.95156 0 1.1122.43702 2.15996 1.22471 2.95774l8.16602 8.0743 8.1946-8.10267c1.6502-1.63168 1.6421-4.27331.0056-5.87543l-.0056-.00551ZM10.9804 19 1.6841 9.80806C.606277 8.72013 0 7.27695 0 5.74496c0-1.53199.583822-2.97517 1.6841-4.0631C3.92173-.552786 7.58644-.560592 9.85625 1.68041c.00796.00786.0159.01574.02382.02365L10.9804 2.792l1.1002-1.11014c.0042-.00415.0084-.00829.0126-.01242 2.269-2.230052 5.9421-2.225911 8.2059.01242 2.2679 2.22027 2.2679 5.86152 0 8.104L10.9804 19Z" fill="#000"/></svg>

<svg width="22" height="19" viewBox="0 0 22 19" fill="none" xmlns="http://www.w3.org/2000/svg">
<path fill-rule="evenodd" clip-rule="evenodd" d="M19.175 2.79339C17.5296 1.16647 14.8575 1.16474 13.2099 2.78822L10.9918 5.02623L8.75049 2.81011C7.10057 1.16255 4.43311 1.17062 2.81372 2.78784L2.80816 2.7934C2.01559 3.57707 1.58967 4.61629 1.58967 5.74496C1.58967 6.85716 2.02669 7.90492 2.81438 8.7027L10.9804 16.777L19.175 8.67433C20.8252 7.04265 20.8171 4.40102 19.1806 2.7989L19.175 2.79339ZM10.9804 19L1.6841 9.80806C0.606277 8.72013 0 7.27695 0 5.74496C0 4.21297 0.583822 2.76979 1.6841 1.68186C3.92173 -0.552786 7.58644 -0.560592 9.85625 1.68041C9.86421 1.68827 9.87215 1.69615 9.88007 1.70406L10.9804 2.792L12.0806 1.68186C12.0848 1.67771 12.089 1.67357 12.0932 1.66944C14.3622 -0.560612 18.0353 -0.556471 20.2991 1.68186C22.567 3.90213 22.567 7.54338 20.2991 9.78586L10.9804 19Z" fill="black"/>
</svg>
